!!!OTL: Dushan xiaodiao
!!!ARE: Asia, China,ÿHebei, Kuancheng
!! IV, 59
!!!SCT: C1635
!!!YEM: Copyright 1995, estate of Helmut Schaffrath.
**kern
*ICvox
*Ivox
*M2/4
*k[b-e-]
*B-:
{8ccc
8ccc
8ddd
16ccc
16bb-
=1
2ccc
=2
8gg
8ccc
8ccc
16bb-
16gg
=3
2ff}
=4
{8gg
16gg
16bb-
8ccc
8ccc
=5
8gg
16bb-
16gg
4ff
=6
8gg
8ff
8ee-
8dd
=7
2cc}
==
!!!AGN: Xiaodiao. Qiongren ku
!!!AMT: simple duple
!!!AIN: vox
!!!EED: Helmut Schaffrath
!!!EEV: 1.0
*-
